X: 16623
T: Haneros Haluli
R: barndance
M: 4/4
K: Gminor
GB A2G2-|G2^cd =cBAG|(g8|g)fed cBAG|dccB BAAG|
dccB BAAG|d^ccB BAAG|BAG^F G4|d3/2f/ (3edc d2B2|
d3/2f/ (3edc d2B2|c2B2 (3f=ef (3_edc|d2d2-dccB|d3/2f/ (3edc d2B2|
d3/2f/ (3edc d2B2|cB c'2c'2(ba)|b8|f4-fg_ag|fedc dc B2|
cdef d2cB|d2d4-d2|f4-fg_ag|fedc BAGA|B2cA BG_AF|G8|

